img/fb.svg

<svg height="512" viewBox="0 0 264 512" width="264" xmlns="http://www.w3.org/2000/svg"><path d="m76.7 512v-229h-76.7v-91h76.7v-71.7c0-77.9 47.6-120.3 117.1-120.3 33.3 0 61.9 2.5 70.2 3.6v81.4h-48.2c-37.8 0-45.1 18-45.1 44.3v62.7h85.3l-11.7 91h-73.6v229" fill="#fff"/></svg>

<?xml version="1.0" encoding="UTF-8"?>
<svg width="264px" height="512px" viewBox="0 0 264 512" version="1.1" xmlns="http://www.w3.org/2000/svg" xmlns:xlink="http://www.w3.org/1999/xlink">
    <!-- Generator: Sketch 48.2 (47327) - http://www.bohemiancoding.com/sketch -->
    <title>Shape</title>
    <desc>Created with Sketch.</desc>
    <defs></defs>
    <g id="Page-1" stroke="none" stroke-width="1" fill="none" fill-rule="evenodd">
        <g id="fb" fill="#FFFFFF" fill-rule="nonzero">
            <path d="M76.7,512 L76.7,283 L0,283 L0,192 L76.7,192 L76.7,120.3 C76.7,42.4 124.3,0 193.8,0 C227.1,0 255.7,2.5 264,3.6 L264,85 L215.8,85 C178,85 170.7,103 170.7,129.3 L170.7,192 L256,192 L244.3,283 L170.7,283 L170.7,512" id="Shape"></path>
        </g>
    </g>
</svg>
